X:429
T: "Das erlauchte Taenzchen"
N: Z1109
O: Europa, Mitteleuropa, Deutschland, Niederrhein
R: Romanze, Ballade, Maria
M: 3/4
L: 1/16
K: A
E2E2FG | A4A2=c2BAG2 | A6
B2=c2d2 | e6=c2edc2 | B4z2
A2A2e2 | e4e2=f2ed=c2 | d6
e2d=cB2 | A6=c2BAG2 | A4z2

